flaticon/weather/temperature-2.svg

<svg xmlns="http://www.w3.org/2000/svg" width="32" height="32" viewBox="0 0 24 24">
    <path d="M 15.199219 15.304688 L 15.199219 2.800781 C 15.199219 1.257812 13.945312 0 12.398438 0 C 10.855469 0 9.601562 1.257812 9.601562 2.800781 L 9.601562 15.304688 C 8.183594 16.324219 7.429688 18.011719 7.632812 19.765625 C 7.882812 21.957031 9.660156 23.726562 11.851562 23.96875 C 12.03125 23.992188 12.210938 24 12.386719 24 C 13.570312 24 14.71875 23.566406 15.601562 22.777344 C 16.617188 21.867188 17.199219 20.5625 17.199219 19.199219 C 17.199219 17.648438 16.457031 16.207031 15.199219 15.304688 Z M 15.066406 22.183594 C 14.207031 22.949219 13.09375 23.300781 11.941406 23.175781 C 10.113281 22.972656 8.636719 21.5 8.425781 19.675781 C 8.253906 18.152344 8.9375 16.683594 10.21875 15.851562 L 10.398438 15.730469 L 10.398438 15.199219 L 10.800781 15.199219 C 11.019531 15.199219 11.199219 15.023438 11.199219 14.800781 C 11.199219 14.578125 11.019531 14.402344 10.800781 14.402344 L 10.398438 14.402344 L 10.398438 13.199219 L 10.800781 13.199219 C 11.019531 13.199219 11.199219 13.023438 11.199219 12.800781 C 11.199219 12.578125 11.019531 12.402344 10.800781 12.402344 L 10.398438 12.402344 L 10.398438 11.199219 L 10.800781 11.199219 C 11.019531 11.199219 11.199219 11.023438 11.199219 10.800781 C 11.199219 10.578125 11.019531 10.398438 10.800781 10.398438 L 10.398438 10.398438 L 10.398438 9.199219 L 10.800781 9.199219 C 11.019531 9.199219 11.199219 9.023438 11.199219 8.800781 C 11.199219 8.578125 11.019531 8.398438 10.800781 8.398438 L 10.398438 8.398438 L 10.398438 7.199219 L 10.800781 7.199219 C 11.019531 7.199219 11.199219 7.019531 11.199219 6.800781 C 11.199219 6.578125 11.019531 6.398438 10.800781 6.398438 L 10.398438 6.398438 L 10.398438 5.199219 L 10.800781 5.199219 C 11.019531 5.199219 11.199219 5.019531 11.199219 4.800781 C 11.199219 4.578125 11.019531 4.398438 10.800781 4.398438 L 10.398438 4.398438 L 10.398438 3.199219 L 10.800781 3.199219 C 11.019531 3.199219 11.199219 3.019531 11.199219 2.800781 C 11.199219 2.578125 11.019531 2.398438 10.800781 2.398438 L 10.441406 2.398438 C 10.625 1.488281 11.433594 0.800781 12.398438 0.800781 C 13.503906 0.800781 14.398438 1.695312 14.398438 2.800781 L 14.398438 3.199219 L 14 3.199219 C 13.777344 3.199219 13.601562 3.378906 13.601562 3.601562 C 13.601562 3.820312 13.777344 4 14 4 L 14.398438 4 L 14.398438 5.199219 L 14 5.199219 C 13.777344 5.199219 13.601562 5.378906 13.601562 5.601562 C 13.601562 5.820312 13.777344 6 14 6 L 14.398438 6 L 14.398438 7.199219 L 14 7.199219 C 13.777344 7.199219 13.601562 7.378906 13.601562 7.601562 C 13.601562 7.820312 13.777344 8 14 8 L 14.398438 8 L 14.398438 9.199219 L 14 9.199219 C 13.777344 9.199219 13.601562 9.378906 13.601562 9.601562 C 13.601562 9.820312 13.777344 10 14 10 L 14.398438 10 L 14.398438 11.199219 L 14 11.199219 C 13.777344 11.199219 13.601562 11.378906 13.601562 11.601562 C 13.601562 11.820312 13.777344 12 14 12 L 14.398438 12 L 14.398438 13.199219 L 14 13.199219 C 13.777344 13.199219 13.601562 13.378906 13.601562 13.601562 C 13.601562 13.820312 13.777344 14 14 14 L 14.398438 14 L 14.398438 15.730469 L 14.582031 15.851562 C 15.71875 16.59375 16.398438 17.847656 16.398438 19.199219 C 16.398438 20.335938 15.914062 21.421875 15.066406 22.183594 Z M 15.066406 22.183594"/>
    <path d="M12.800781 17.242188L12.800781 14.800781C12.800781 14.578125 12.621094 14.402344 12.398438 14.402344 12.179688 14.402344 12 14.578125 12 14.800781L12 17.242188C11.085938 17.425781 10.398438 18.234375 10.398438 19.199219 10.398438 20.304688 11.296875 21.199219 12.398438 21.199219 13.503906 21.199219 14.398438 20.304688 14.398438 19.199219 14.398438 18.234375 13.710938 17.425781 12.800781 17.242188zM21.933594 5.453125L20.800781 4.800781 21.933594 4.148438C22.125 4.035156 22.191406 3.792969 22.078125 3.601562 21.96875 3.410156 21.722656 3.34375 21.53125 3.453125L20.398438 4.105469 20.398438 2.800781C20.398438 2.578125 20.222656 2.398438 20 2.398438 19.777344 2.398438 19.601562 2.578125 19.601562 2.800781L19.601562 4.105469 18.46875 3.453125C18.277344 3.34375 18.03125 3.410156 17.921875 3.601562 17.8125 3.792969 17.878906 4.035156 18.066406 4.148438L19.199219 4.800781 18.066406 5.453125C17.875 5.5625 17.8125 5.808594 17.921875 6 17.996094 6.128906 18.128906 6.199219 18.269531 6.199219 18.335938 6.199219 18.40625 6.183594 18.46875 6.148438L19.601562 5.492188 19.601562 6.800781C19.601562 7.019531 19.777344 7.199219 20 7.199219 20.222656 7.199219 20.398438 7.019531 20.398438 6.800781L20.398438 5.492188 21.53125 6.148438C21.59375 6.183594 21.664062 6.199219 21.730469 6.199219 21.871094 6.199219 22.003906 6.128906 22.078125 6 22.191406 5.808594 22.125 5.5625 21.933594 5.453125zM6.078125 14.402344C5.96875 14.207031 5.722656 14.144531 5.53125 14.253906L4.398438 14.90625 4.398438 13.601562C4.398438 13.378906 4.222656 13.199219 4 13.199219 3.777344 13.199219 3.601562 13.378906 3.601562 13.601562L3.601562 14.90625 2.46875 14.253906C2.277344 14.144531 2.03125 14.207031 1.921875 14.402344 1.8125 14.59375 1.875 14.835938 2.066406 14.945312L3.199219 15.601562 2.066406 16.253906C1.875 16.363281 1.808594 16.609375 1.921875 16.800781 1.996094 16.929688 2.128906 17 2.269531 17 2.335938 17 2.40625 16.984375 2.46875 16.945312L3.601562 16.292969 3.601562 17.601562C3.601562 17.820312 3.777344 18 4 18 4.222656 18 4.398438 17.820312 4.398438 17.601562L4.398438 16.292969 5.53125 16.945312C5.59375 16.984375 5.664062 17 5.730469 17 5.871094 17 6.003906 16.929688 6.078125 16.800781 6.1875 16.609375 6.121094 16.363281 5.933594 16.253906L4.800781 15.601562 5.933594 14.945312C6.125 14.835938 6.1875 14.59375 6.078125 14.402344zM6.078125 14.402344"/>
</svg>

<svg xmlns="http://www.w3.org/2000/svg" width="32" height="32" viewBox="0 0 24 24">
    <path d="M15.2 15.305V2.8C15.2 1.258 13.944 0 12.397 0a2.802 2.802 0 0 0-2.796 2.8v12.505a4.787 4.787 0 0 0-1.97 4.46c.25 2.192 2.028 3.962 4.22 4.204a4.828 4.828 0 0 0 3.75-1.191 4.811 4.811 0 0 0 1.597-3.579 4.78 4.78 0 0 0-2-3.894zm-.134 6.879a3.998 3.998 0 0 1-3.125.992 4.012 4.012 0 0 1-3.515-3.5 3.997 3.997 0 0 1 1.793-3.824l.18-.122v-.53h.402a.398.398 0 1 0 0-.798h-.403V13.2h.403a.398.398 0 1 0 0-.797h-.403V11.2h.403a.401.401 0 0 0 0-.8h-.403v-1.2h.403a.401.401 0 0 0 0-.8h-.403v-1.2h.403a.4.4 0 0 0 0-.8h-.403v-1.2h.403a.4.4 0 0 0 0-.8h-.403v-1.2h.403a.4.4 0 0 0 0-.8h-.36a1.999 1.999 0 0 1 3.957.402v.398H14a.398.398 0 0 0-.398.403c0 .218.175.398.398.398h.398v1.2H14a.398.398 0 0 0-.398.402c0 .218.175.398.398.398h.398v1.2H14a.398.398 0 0 0-.398.402c0 .218.175.398.398.398h.398v1.2H14a.398.398 0 0 0-.398.402c0 .218.175.398.398.398h.398v1.2H14a.398.398 0 0 0-.398.402c0 .218.175.398.398.398h.398v1.2H14a.398.398 0 0 0-.398.402c0 .218.175.398.398.398h.398v1.73l.184.122a3.99 3.99 0 0 1 1.816 3.347 4.015 4.015 0 0 1-1.332 2.985zm0 0"/>
    <path d="M12.8 17.242v-2.441a.398.398 0 0 0-.402-.399.398.398 0 0 0-.398.399v2.441a1.999 1.999 0 0 0 .398 3.957 1.999 1.999 0 0 0 .403-3.957zm0 0M21.934 5.453L20.8 4.801l1.133-.653a.402.402 0 0 0-.402-.695l-1.134.652V2.801a.398.398 0 1 0-.796 0v1.304l-1.133-.652a.402.402 0 0 0-.403.695l1.133.653-1.133.652a.4.4 0 0 0 .204.746.409.409 0 0 0 .199-.05l1.133-.657v1.309a.398.398 0 1 0 .796 0V5.492l1.133.656A.409.409 0 0 0 22.078 6a.397.397 0 0 0-.144-.547zm0 0M6.078 14.402a.398.398 0 0 0-.547-.148l-1.133.652v-1.304a.398.398 0 1 0-.796 0v1.304l-1.133-.652a.398.398 0 0 0-.547.148.396.396 0 0 0 .144.543l1.133.657-1.133.652a.397.397 0 0 0-.144.547.397.397 0 0 0 .547.144l1.133-.652v1.309a.398.398 0 1 0 .796 0v-1.309l1.133.652a.397.397 0 0 0 .547-.145.404.404 0 0 0-.144-.546L4.8 15.602l1.133-.657a.396.396 0 0 0 .144-.543zm0 0"/>
</svg>
